X:0
T:Lord Kelly's Reel
G:reel
N:transposed back from flute version in Aird v1
M:C
L:1/8
Q:1/2=92
K:GMin
F|DGBG dGBG|F>GAf FG (B/A/G/F/)|DGGB AcBd|cf (d/c/B/A/) BG G:|
g|bgdg Gggb|afcf  Ff  fg/a/    |bgdg fdcB|Af  d/c/B/A/  BG Gg|
  bgdg GBgb|afcf  Fc  fa       |bgaf gdcB|Af  d/c/B/A/  BG G|]

While that tune uses an Italian harmonic progression inspired by Corelli,
it still leaves out the sixth to fit the dorian/minor hexatonic scale.
Many fiddle tunes of this period have a similar structure, and for some
reason I don't understand nearly all of them are in G minor or were
first published in that key.

The innovations of the nineteenth century that now feature in every
Scottish dance band's repertoire - like "Gaelic waltzes" and polkas -
were harder to assimilate.  Some are older traditional tunes given
new rhythms: others are impossible to adapt to scales with gaps or
non-diatonic modes, like these tunes with sections in different keys
and key changes within sections as well:

